!!!OTL: 53. Skotshne
!!!Genre:	Skotshne
!!!Mode:	Minor
!!!Listening/dance:	listening
!!!:	*B-:
!!!One_Mode:	no
**kern
*thru
*I"P1
*clefG2
*k[b-e-]
*B-:
!LO:TX:a:i:t=Bb-major
8f
=9!|:
(8.b-L
16ddJk)
(8qgg/
8ffL)
(8qff/
8ee-J)
=10
4.ddt
16ccLL
16b-JJ
=11
4b-
(8ffL
8ee-J
=12
4dd)
8r
(16ccLL
16b-JJ)
=13
8.b-L
16fJk
(16b-LL
16cc)
(16cc
16ddJJ)
=14
(16ddLL
16ff)
(16ff
16ddJJ)
(16ddLL
16ee-)
(16ee-
16ccJJ)
=15
(16ccLL
8qee-/
16dd)
(16dd
16b-JJ)
(16b-LL
8qdd/
16cc)
(16cc
16aJJ)
=16
!LO:TX:b:Bi:t=Da Capo al Fine
4b-
4dd
=||
!!!End-Modulation
(8.b-L
16ddJk)
(8qgg/
8ffL)
(8qff/
8ee-J)
=10
4.ddt
16ccLL
16b-JJ
=11
4b-
(8ffL
8ee-J
=12
4dd)
8r
(16ccLL
16b-JJ)
=13
8.b-L
16fJk
(16b-LL
16cc)
(16cc
16ddJJ)
=14
(16ddLL
16ff)
(16ff
16ddJJ)
(16ddLL
16ee-)
(16ee-
16ccJJ)
=15
(16ccLL
8qee-/
16dd)
(16dd
16b-JJ)
(16b-LL
8qdd/
16cc)
(16cc
16aJJ)
=16
!LO:TX:b:Bi:t=Da Capo al Fine
4b-
4dd
=:|!
!!!End-Modulation
*-
